mimetypes/scalable/application-x-gambas3.svg

<?xml version="1.0" standalone="no"?><!-- Generator: Gravit.io --><svg xmlns="http://www.w3.org/2000/svg" xmlns:xlink="http://www.w3.org/1999/xlink" style="isolation:isolate" viewBox="0 0 256 256" width="256" height="256"><switch><g><g id="application-mimetype"><g opacity="0.2"><path d=" M 78.924321 15.500025 C 43.627596 15.500025 39.829708 19.125398 40.002695 54.49353 L 40.002695 127.500014 L 40.002695 200.506441 C 39.829708 235.874573 43.627596 239.500004 78.924321 239.500004 L 177.081083 239.500004 C 212.377805 239.500004 216.002702 235.875035 216.002702 200.506441 L 216.002702 127.500014 L 216.002702 54.49353 C 216.002702 19.124994 212.377805 15.500025 177.081083 15.500025 L 78.924321 15.500025 Z " id="path1163" fill="none" vector-effect="non-scaling-stroke" stroke-width="4" stroke="rgb(0,0,0)" stroke-linejoin="miter" stroke-linecap="butt" stroke-miterlimit="4"/></g><defs><filter id="shVyGpymbFjnRV5nhGgqmUs7qUm9iZPc" x="-200%" y="-200%" width="400%" height="400%" filterUnits="objectBoundingBox" color-interpolation-filters="sRGB"><feGaussianBlur xmlns="http://www.w3.org/2000/svg" stdDeviation="2.120027"/></filter></defs><g opacity="0.1" filter="url(#shVyGpymbFjnRV5nhGgqmUs7qUm9iZPc)"><path d=" M 78.924315 16.5 C 43.627592 16.5 39.82971 20.125416 40.002699 55.493531 L 40.002699 128.5 L 40.002699 201.50647 C 39.82971 236.874573 43.627592 240.500001 78.924315 240.500001 L 177.081083 240.500001 C 212.377806 240.500001 215.084425 236.863068 216.002699 201.50647 L 216.002699 128.5 L 216.002699 55.493531 C 216.002699 20.124997 212.377806 16.5 177.081083 16.5 L 78.924315 16.5 Z " id="shadow" fill="rgb(0,0,0)"/></g><defs><filter id="DIOWGQFTw8o0Iu8HkB4yFIuagSP21b1W" x="-200%" y="-200%" width="400%" height="400%" filterUnits="objectBoundingBox" color-interpolation-filters="sRGB"><feGaussianBlur xmlns="http://www.w3.org/2000/svg" stdDeviation="8.4801079"/></filter></defs><g opacity="0.3" filter="url(#DIOWGQFTw8o0Iu8HkB4yFIuagSP21b1W)"><linearGradient id="_lgradient_234" x1="-0.0681490711308741" y1="0.03125" x2="0.9537210324437329" y2="1.0531201035746074" gradientTransform="matrix(176.005396,0,0,224,39.997303,16.5)" gradientUnits="userSpaceOnUse"><stop offset="0%" stop-opacity="0.58823532" style="stop-color:rgb(0,0,0)"/><stop offset="88%" stop-opacity="0" style="stop-color:rgb(0,0,0)"/><stop offset="100%" stop-opacity="1" style="stop-color:rgb(0,0,0)"/></linearGradient><path d=" M 78.924315 16.5 C 43.627592 16.5 39.82971 20.125416 40.002699 55.493531 L 40.002699 128.5 L 40.002699 201.50647 C 39.82971 236.874573 43.627592 240.500001 78.924315 240.500001 L 177.081083 240.500001 C 212.377806 240.500001 216.002699 236.875001 216.002699 201.50647 L 216.002699 128.5 L 216.002699 55.493531 C 216.002699 20.124997 212.377806 16.5 177.081083 16.5 L 78.924315 16.5 Z " id="blur" fill="url(#_lgradient_234)"/></g><path d=" M 78.924321 15.500025 C 43.627596 15.500025 39.829708 19.125398 40.002695 54.49353 L 40.002695 127.500014 L 40.002695 200.506441 C 39.829708 235.874573 43.627596 239.500004 78.924321 239.500004 L 177.081083 239.500004 C 212.377805 239.500004 216.002702 235.875035 216.002702 200.506441 L 216.002702 127.500014 L 216.002702 54.49353 C 216.002702 19.124994 212.377805 15.500025 177.081083 15.500025 L 78.924321 15.500025 Z " id="shape" fill="rgb(49,198,183)"/><g opacity="0.6"><path d=" M 78.924573 15.500025 C 43.627848 15.500025 39.829708 19.126032 40.002695 54.494165 L 40.002695 56.494138 C 39.829708 21.126005 43.627848 17.499998 78.924573 17.499998 L 177.080824 17.499998 C 212.377545 17.499998 216.002702 21.125601 216.002702 56.494138 L 216.002702 54.494165 C 216.002702 19.125571 212.377545 15.500025 177.080824 15.500025 L 78.924573 15.500025 Z " id="highlight" fill="rgb(255,255,255)"/></g><g opacity="0.1"><path d=" M 128.002691 15.500025 L 128.002691 239.500004 L 177.080824 239.500004 C 212.377531 239.500004 215.084421 235.863501 216.002702 200.506787 L 216.002702 127.500014 L 216.002702 54.493184 C 216.002702 19.124648 212.377531 15.500025 177.080824 15.500025 L 128.002691 15.500025 Z " id="right highlight" fill="rgb(255,255,255)"/></g><g opacity="0.2"><path d=" M 156.002703 239.500004 L 216.002702 179.500005 L 216.002702 201.983857 C 215.950394 235.97965 212.200019 239.500004 177.828601 239.500004 L 156.002703 239.500004 Z " id="clip" fill="rgb(255,255,255)"/></g></g><g id="gambass"><path d=" M 182 79.785714 C 170.428571 91.357143 162.714286 102.928571 143.822005 108.378715 C 141.484565 94.115001 129.06843 83.642857 114.5 83.642857 C 98.09557 83.642857 84.799997 96.834286 84.799997 113.107571 C 84.815432 114.338001 84.904142 115.56843 85.073858 116.79115 C 78.366286 120.586568 74 127.417568 74 138.715142 C 74 157.619003 92.425573 176.214286 113.42386 176.214286 C 154.95371 176.214286 182 133.361426 182 79.785714 Z  M 114.5 96.926858 C 123.44857 96.926858 130.700003 104.120429 130.700003 112.999572 C 130.700003 121.874852 123.44857 129.072285 114.5 129.072285 C 105.55143 129.072285 98.299997 121.878707 98.299997 112.999572 C 98.299997 104.124284 105.55143 96.926858 114.5 96.926858 Z  M 153.92386 136.327573 C 153.92386 139.305285 135.201288 162.81843 117.200003 162.81843 C 100.695284 162.81843 91.276143 151.744565 91.276143 140.238716 C 109.277428 157.750148 138.803852 146.201864 153.92386 136.323718 L 153.92386 136.327573 Z " id="Compound Path" fill="rgb(255,255,255)"/><ellipse vector-effect="non-scaling-stroke" cx="120.82571428571407" cy="106.3112857142857" rx="8.254285714285714" ry="8.188714285714283" id="Ellipse" fill="rgb(255,255,255)"/></g></g><foreignObject requiredExtensions="http://ns.gravit.io/"><gravitDesigner:gravitElementRef xmlns:gravitDesigner="http://ns.gravit.io/" xlink:href="#w3OuGT2MjmEJMbvAy3NKkgeubAc0EIlH"/></foreignObject></switch><gravitDesigner:gravitGraphicSource xmlns:gravitDesigner="http://ns.gravit.io/" id="w3OuGT2MjmEJMbvAy3NKkgeubAc0EIlH" version="1"><![CDATA[eMKcw5VaacKTw6pWwpLDvSsdeGLCvsOMcz3DrcKLIzrCoiXCoX1DIEDDiMOlwpjDkMK+wqNdCBzDvsOvIygow6DDtcKzwrtewrfCu8OtwqkKakluZsOeTMOlOTfDs1bDvTzDu8Obw6zCh1nDpUTDgcOsw5PDrMK/Zj/DvMO4w7NFEDVlXz1JKsKnwosnwoHCl8KXbcOgw49+w6jCmj7DuDTCq8K6dlrDsMOjDHbDtMOcWFbCosKzVsO/Oi3Dum56EcOQwprDsgTDqsOUecOsUhEXKsK8w7N4K0nChMOEw5zDkMOCVgnCpyXDgsO0CsO9FnzDl8O8w6nDk8KPM1ZUC2PCrcObHsOwbirDijbDrQkZTMOuw6TCqxsGKMOoVcKWw4Ynw4M6worCsMOqOnozLTlvLSfCvMOccDLDksOJHk0tUTDCusKbWsKPw4ttw5XCl1zCkCMjwrLDqcKhfMKEW8OAw6rDnMOIw5l0woTDisOhdz3Cu8O0w5N7NMKMSUdwwrBJwpU9wp/Dl8Omw4AWPMKHcMOmwrjCq0LDh8KDDhvDtxrDjWULw5tQw4luw5FcEsKzIsO5LHs3w5UBIcOdD3ZYw7V7wpdpXcKtS8KUfMOPbMKJEiMjf2Elw5doLsKJwrlpXkzDoSpmJE/CpsKoYsK9T8OqwrTDrsOnZAM4wqLDkC3CiRXCtnJ8UcKfwqfCrm93w5ddw6ERGsK9a8KeTTFTJEbDtRTCoMObw5Ngw5Ewwpp7IsKSw41awoLDucOsw6RYZnYoN8K6SsOrwph1w53DlUXCsxjDrgFeBMOxU8KOw7HCqBF8w7vDlMKpwoM4w6XClyLDlgRcw4nCtlwtexZ1wpfCvX/Dl8OLwp4eM0FxKcK4w6EAw5xTwqJSRcKXw7wJUMKTwqbDgsOzIcOuwp1YZsKvw5FcNGvDscO+wpgvwonCicKfwopvwp47wqjCgsKFwpAPwppowrAxwpXDncK4L8KFAMKUw5pew6J2bkVcwqPCuSTDpsKmw7nDk0/Cn2ZNEHZjN8O7YcOfw6fDucOlN2fDr8OFZXMuw7LDqcOdwq4Jwqcfw6AXHCdRCEcwDEAREkbDkE/DgMO0w7k1w7ELwobCkSAGEgBOw6DDoMO0w7nDqXsCw4NeQBLCgTEMwoIwGCTDscOJw6zDninCgivDgEAQwoPCp33DvW/Dm8KVw5XDrAfDoAXCmn7DjsKdY3DDnsOBDcKGw4nCvlPDnkTCj8OwDMKTPF/CvMK/d8K2UU1xw4zCmMOvfjxvDsO4w6ksGSYrwqHCk8K3w4Evwp/DnsKUw5zCssOxwoPDplnDjT3DjH7CgF/DiMOLBw7CvH3DoMOYw7nCjcOcO8Krw7Rdd1lWw6TCsx/CkMK/d8Ozw4sUw5B/TxLCjxXCqcOeXsOtI8OsRMOWMcOrwqzCgSnDvXXCm2DDu2XCsBjCksOdw6zCl0k3CENxw6LCksOZUjbDlcOAJsKbw63CqsKJRsKeQR3Dn8KQwonCkcKOw6zCgTrCgsKeBsOMbhvDvm0Sw6o8w5I4UFTDjsKKwrc6wpB7w5rDrcKgckTDicKqwpkfwpXCisKCS0stwonCrHVNESbDjMOyWlLCqMOwwrk3wqLCq8OmwrnCpChqHhnDjcKcw6DDrsOVacKuF1DDhSPCg8KdC8Otw4HDkcKNw4XCscKIw7FEw5Bxwp4hwrhtD11LCmbDscOQKCDCqsOMHk3CnW3Dn8KrU2jDg3bCuTttN8O5wqALJ8KcXmfCisKWwrpLwoDDjMOHTlzDlsOkXcKvwo5ow7gOw7dhB8OuwqBuRRTCkGnCuRtdVjvCtMOxwocIZcKPW8ODwohJw6kaw41lC8KDPFDCrHEFw4glMQxFZcOGw43ClMOlw5JKw5kaw6LDpA8ZLVE8HsORcWBOwrxCwrI6K8OYwptrNG/CicK5al7CqHFpw5Jfwpg6wqVHw40/csO+woJRIgrDtMKTwpMmKMOdwrrCpAUjwpXCkcOAw6bCr8K7wqLCoXnDtsKueQ3CsDTCsMKnAMObw7lxw6PCgcK0GR11wo93O8Kyw55ZKsKOw5LCtcKXw4I7w7XCmMOfwqgRwqfDjcK9ARfDvXvCgBdTwofCpxzClyfClcKbD3A+wqxrQG0Hwr5kw6dkAMKZQ8OIw7fDokJawpzDrnrDuMOTYy7CtsKWNcOfFRnCicO1w4gmw4fCrMKjNCgMXMKvMcOTEcKDfG5dwqPCuWh+Jj/Cvz/DpsK3w4Q8FcKfO8K0w5koJxoeBEkWwql5FMKWe2N5w6rDh3nDj8KQwrRnXsKjeUvDjMKtw7g+SELDgAt6w4UmAMKdWQfDhS4kw7QVw7HDtyA6wqEZwocBEMKAMBDCgggQw77DtD0EwrwgF8KEYzACwqITVyF3Hmpjw4cvD8KPLATDvn4sw7TCj8KYB3zCucOtH0BJAEVBw6jDg8OMw7NEcFcWWnbCocOBwrFOFsOvwoXCpcKTw67DtSDDpFDDh8OlwodNYErCsMKzwodvLHTCi2vDujHDsMK6w6fCmMOcwrxvw5jCi3wSN8KTw6sXEsOGMRgmw4/CpMKOw6HDoMONwpdawoh8w43Dp8KWEGsqw5jCt8KiVMK0w5nDglPCksKFFy8iwr7ClGbCv8O8wrMswpYYc3TDjnvDg2knwo7CusKowojCqsObwrhwEcO5LcKfwpvCtjXDnBDDthEWw5sqw4fDnQpPwpFEwqrCoFzDpsKUwrnDoMOiwoYiHgAQw4piwq7CqcK/woHDhRR5HhPCu8K1TS7CuMKKWcKvw7puDh3Cgmo1woghw6HCp1Ffw7wawovCgVTCo8OiMcK8URLCjnTDhCQYSsOPX0vCu8OIw4nCq8OUwo3ChFsrw7URFhMBQTIWwqQqwq7DjcO9NsOdGxLCoC/Cj13DrAzCu8ONWAjDhcKtMcO8CMKLwql9AhDCvcOHeiYOwpHDpBHDnmRjAUFzIwrDmFJmasOtG1hMBHsfw4vCg8KDHcOvw4JTw5hiwqpnw4rCtMK8U1rChWAZOh3Cr8K7eiMtw6bDsFsswoZ6fcOfwqHCtnTDoGJLO8KMwo0CwoPDvm7Dn8KBwrU2wrLDqcOgS8K/w4Ziw4YRwpXCuGbCh3s2w5XDgcK4wpYmwpBsEHsiwofCsMKCwokMBMO6BhYTwo9ZehrCvcKqPHphw4bDusK4woPDr0VwQcKCWcKdc8KywpfDn8OOwr0/G8KLwp1Rw7vDiGHDsMKHOcOsw59NTcKffsKTKsKVw69+fsKdwrXCr2d3CMKCwoIIwoTCoiTCghIEQBDCn15nw6E4wr3Dsz3DsAJgBMKIwpAADsKCMEDDoAh4fsOrw7h6wo4TwoBBCMKdfj0vw7xxMlXCncKlw5PDr8Oew7TDvcO1wr7CpcOXw5kkKy8awpNxCEZhaMOaw5h1w7nDi8OFw5fCr2rCvC8Ef2PDlcKZFl9nw415wrvDqMO0wpTDsDNZIjBOQCBMw7zDssOeJcK2wqVBwqzDisOcQsOgwr0swrnCsTHCt8OSw4ASZMK/wpcaw4nDmMO4w7t/wobCn0HDsgVHARRGwqccwpEYwoQiw5jDjcKbbcK0c8Krw7XCqcOUw7YMDGTCsGV3wpROwoIvWcKiAgTCu2bDvVHChsO+w7thwrdxCMKiw4p9FMOZJcORLsKmw7lldFzChMKUNmzDs0Fed8OQwq1rw7jDiMKwK3fDuRE8w5Irfk/CisOSUlltwqFWw4pCcsKhwp4cwq7DtgZ6w7bDsWHDt8KITsOUIcOUwrTChUrDuMOxVMODw4XCsBvDlXEsfCjCmcOzMgbDvsOawrBbwpVawopKw7tmGxPCg8OuwqA8w6JKPE3CiUbCucOoW2dqW2cfH3bCqyE0DmIbLQQfKUdtBAvCssKHOhrCncKLK1jDrU7DiMOsw6PDgy7DlFFhHGzCtRPCswvCicO1woHClsKIQXbCpsOPTFJUw67CsMKFZx8fdhUPw7HCmcKxN0JTw4xIw5BdwrfDm3bDnsKTfsKwwrZUMMKRHXDDtsOxYcOXwoYtwpEybFHCtcKKeMKPw4jDhsKBFMObeC7CpcKHw5VuU8KqwpXDvGvDg27CrsOawofCnSdxwo4Fe8Khw5fCm8Ksw6UHwrYvYQNgM1rCq8KMwrPCjw/Cu8KcI8Kgw6UuHUMRwo4cw4dWw4QiS8OMwo7CksKQwpLDkxcQFMOPw77ChMODw67DlGRWw6cbwqd/wrnCr0TDiE8gSXwCCcO4PntWewjDn8KHw61BaWwHGTc6wovClcKQVVMZw4E1dsK6wqTDm8Knw5nCs8KAwrgsw6HDmsOGAwbCjkLDlR06MAjCgMOgfsK8wrfDpMOOaMONwo/DjcKeFxQFGzHCuT9hTFY2a8ObccKjwo7Dl8OCIcKpw6LCmMOYw4JRwr7DgTLDjBbCkMKUw701w7TCmcK4w6LDosO9wpxHdsOWwpDDo8KUw4TDlcKrw7XDhl0ow4bCgj3CugFIfwPDusOsVcK3wporw5Zgw7pAUQjCsF4bK8OVOsKmw5oWZ3MLHcOqb0AfFwxIYcO2YCpINMOfw7BHwp3CghLCk1NAJVPDl8KnITx9A8O6w7zDpMK4FVgKKsOpRcOawrA7w4HChMK0dsOtw5N8cCrDp8KKAMKsfhN9w71Two4HwrrCoC05wrLCp8OewoYiQcKZw6rCg3JDwqY0w6jDrWhwYcKHw7QfV8OnQ3I7w7DDn2vCvnPCosOZw698wrczdQfCn8Kuwq8/wrTDvCl5w7XDpcKRWAp4OsKmPcOHw6gLOcKzIQQGC8KHXinCi1PDr8KEe3p/wrt6OcKQXz0SwrFHwq4kwrcwwqbCsx0VwoTCqibDiMOzw5RGNWZfw5QyIxk4wofCl8K3wobDusKCCMOXw7jDokjDtMOWwpHDj8K+wptKwo7CnMKlw5vCo0jDpjEBWCfCtnDCicO5AnMXwofCpRTCg8KDJDzCgms1cMOvwqYuAcOaw4LDoiFAa8OJdsOoKBRcwpnCsmLDi8KVw63CtsK3ODVlwqwgwqPCmsKywr3ClcOxJcOAwpvDpsOZw5TDicKdw4BVPcKZwqJPbh7Cu8Kgwq4Kw4pQVw7DlljDpF4obMKRw57DosKmwqvCosOrw5tIRE3DoMKqHkxdEMORPgUYExjCq3NiTQrCkGJGwpnCnBVdwqsifcK8wqDDtxpgwrDDpSPCuCYAO084w43CnsOSLnI2w4/ClDwkJ0Jma8K4JMKPFFU5w7xWD1fDgTQ8I09Hw5TDocKew7ZLwoDDj0fClMKXw6lHwrYuJMKTwqFHw7wEWggLIMKhecO0UXV9RFNIwr/DrsOqEsOgwp/DpcKIworCkyjDjsKnV8O3CFrDrHcHw60/wrgQAcKuV8KxJMO0NhPCgcOkwr90IRLCm8KIMMKXwrnCg0cowo3ClHJxZsKNw53ChlXDuQUOwqtUw6rDhU/DnMOQwrXDnXTDrMOIwrUDw5hJwo3CkMO8wrbCmifCp8KtJcOsd8OwUcKyc8O5Y8OcwoDCtiLDv0U5w4BUKsKew7htecKIDH3CvjErw75gYMKqwroswo4HwpQSwoQ+wr3ClMORRcOvw7kQwpIPMDRuwo4Sw5NXwqogw7bDvMKcO2QeWiMoRlnDuQINw6/DpcO3wqwHw4DCrURBDMKXDcKZUWkhK8KsesOZLsKCDsOxO8KYacKRGxdBwofCrx5ew4DDo8Ohw4XCgT4dw6Nww5YswpfCocKQe8OBABLCh2xswpDDpT5ncibDhMKvwpXCvMOow4fDhMKIw4LDn2wdw5fCsWTDkEZGw5jCiw5iwqnDlgTCnATDkw1ITlNWwq8VK8K+w6vCpcOQIy5LwohMGcK3JcOlbRPCm8OHBUPClcODXMKdOGDDqsOzwo/CrsOWPMK1wo7DlW/Do3IqwoXDmF3Ch3QgwrTDmcKaW8Orw7JmaMOLwpQrwoRcCVTCs8K+ccOYJTF/Flw2Z0zDvsOlwqvDqMO8PS4qw79IdMKuw4MGXTXDsyXCr8OywqjCgMKwJ8KYYMKoOTxfFMOUw5zDkULCpn9CZ0PCuxIiwoBhw63DpMKawqEaBFovQg0QOElIB1bCn8KHw5/DkMK4PsKPwo3DtVbCt8ONAMKoUcKMbVQ+SWVHMxXCrsOOJWJMGMOUWj40wq5Pw5DDqHdLwrshacOKLznCo17CmsO+w6DCi23DocOZc8Odw57DscOKwrLDosKeGsOXw6YOwo3Di8OZw7rDnMK4w4rCpARsY13Do8K5PgFpVsOyVTkLw4fDhsKtD8OLwpUmwpnCtyF4w5TCvmhcwr/CgsO9RcKxFgTDinPClsKKw5bDscOCw4LCnANlUkZNBHnDjCJ1ecOzG8Kwwq9vw5TDtTwqwqUDwrbCnA7DhiQESjYdw7PCvsOxw5NCw5cPK8OtG8Kwwo9KBjYic13CmcOvWTA8QmbDrjdgCVjCnsKuSsOGRlvDvcKpGlfCt8OswrrCssO4OsOkfsO/LsO2Pws5w6bCsFdXJcKJdH4CwoXCqznDphbDlcKqw4R9RsKrVcO/wqRgw5ATw6TDkG3DhAXCoQxIw4rDlMOZAlwpw7bDtMORwqFLw6PClMO4bh1Yw7rDhyDDh2zDl8OZF0V6BMKhw5jChsK5w5Miw6XDsGPCu1Ebwok6w4LCjULCo8Kuw47DlMKNw4vDncOLKCHCt8OJXS8vw4VkwrvCpFYYw49QNsODw4bDhcO6wrDCrSQxw5NGwo9EMSzCusOrw5XDmsOiw7HChicEISDDksOMCB4JJsO1RH47w7JiacOlPSPCu8O8wqBlwrfChsOTwrdTY3DDtcO3SsK2w7cIw77DhcOWwpcnwr0Ww5NmYQVHejfCusK8FgzCo28QwqLDlztBSgTDrXsbwozChnd8w73DgUfCiMKXJ8OVH1rDhMO4wrXCiMKRwrfDu2QQw73Cl2rCuMKoC8KgwoTDpcONwrY3BmMXJlvCj8KKWHw+wrV2wqdcw6PClcOgwqnChmU8SMKdw4FLwpbCscK3RFANVBFSPnJ2wr0KwprCjsOid8ONZcKMw7zDt8Kmw5/CqcKqPMOxwpwuKcO3w58Xw4nDlMKHHcOfw67Cgm5bwozCgcKRM8OXID/ClylHwpQowp4tFcK9ZMKDwqjCjQfDkcKpd8Oxe3rDv8O+wr/ClMK8wrLCqMOKfsOvXwEYDMOBwr7DtMO9d0I7wovDjxU2w7vDuXXDtsK3w4vDjcO1WXLCucK0fsODw6rDqxXCrMKvZ8K0wp7Cr8OQf3zCnVEUwoXCnMO/w7Z1YMOZwr9ewpZ+d8O5wrrChSkZSBfCu8Klw5DCg03CnsOKwpTCscOzcMKlw4RdSsKwekTDm1wWwr3DmcK+WMOIwo8LDhDDnywIN3F7NgxdDE/DuMKadgFFwobDkWnDmsO/AE/CvsOmwr1zShfCpTxGKsOMeg7CuHBtBDDDrS0KbMOQwp3CpMKmw4/CvsKywrNRw6LCtsObN1/DqMOnVjNyGcKBw5fDr8K+KGrCnhkGRR3Cn8OjwqrCjcOUwpF4WStMfT3CmsKcD8KebHYTw5cGbzPCscKTw6nDqMKDwq8qbsOpwrPCr8OjwrMvw6jDs8Kewr4bwr7DuMKyC8KnMDbCjk5lw6LCoy8Bw6VLwrhow6XDoMOQw6N+IsKFNVHCmcOeBsOVw7drQUlwdcO5w6DDq2JhwpV7CMOww6TCq8OgwrHDggjDsTV1ScOtw4XDl8Opc1AYaynCosKffcOtWBcFVsKnOcKoecKpwp3CqcOMXMOqKT7DtMOTUsOpdlkESA/CvsOaCioMZ8Onw5LDq8Knw6fCtcKJMMObw7DDiQXCk8KJw7ccMsKGw6EcPGHDvcOkwqtfwrs1wrnDnMOrw7pow699wqvCok9pw4hQwqnCqcOXwo0RwpMRwrZ+el7Ck8KFLcKdwrPDqy9qYxLCr8KPwrDDisK+w7vDmsKrZnxOw6vCkn3DshXDm0QBWwTDr8KnecOKwpfCu1jCkADDoCjCt2saSmhyUz7DlsKhOQ/CoCcLb8K+wrpBdcOPwo/DsU3DvMOTw6UPNxd2fsK9w5LDs8OrAz/Cv14Iw7rDtUwRwq8Xwo4gUBxEwqDDt8KvV8KKw7hSworCvDwJJsKiw7wewoRew7DDp2VnwrtnIhbDvQs2w6vCgHd3w5QOwofDsRY5CsK+DMKAw7New44wI8OwE8KRwpHCrcOywrLDuTfDlsK4wqzDr13CsV3DlgfCnALCosOULnZjaMOSwqtKwqk2w5piD8OQwoxwfMKdw70yccOCwrdBf8KCw4jChsORwpBnOMKmwqNRd8KnUQkzdMOuCsO9dh5zw7jCgsOQwoNoexBkYV0+QkTCmC/CnyzCvMKlw5wSP0N3w7Fbw5l6B8OGwqjCq8OxC8KIw7jDm8OCwobDlcOcwotTwqoDw4LDkMKbH8KHRVw5csKfJ1tkw67DqQ/Cvi4WwroNQmRPwr4uw6Jew48ZQHzCgsO+VMK2LMOww6TDi3JrQ3TDosKYwqvDlsO7wo7DqcKDwowmw4clasK7VcKMwpcyKMOnD8K+LgE8WhDDrsOhwr7Ci8Kvw5B3GcODw7nCu8K4JDcFw6fCtkLDqsKtwqTDsD0qw4nDncOCWFXDrjAQw43DjsOwC8OuCcO6wpPChcKgKMKYZ19vYg57C8O3w49TwrY+wq/DoMOHwqpBaHDDm8OZw5lIwowDbC97wptfOMKucTLDp8OiwpdlWxXCqjbDoTLDt8KLwrorccKuwpDCtF3Ci2glR8Kww4fDkRfCtcOyw5vDi8OWw6xFw4fDqMO4woR/TsO5w5oXFsKHYTp4ecO2w6jDtMOrw5FLRMOCwrbCqMK1w54cVkTDgQQPwrnCvVjDiBPDtMKNw5cuw4/CscKow7bDlcKZFMK1Z8Kjw7TCgC/CmUXDgMOkB1nCh8KTLDbCt2XCuRjCph7Dt8K0w7Y3w4HDgDzDlifDrAlGw71gw6HDjcKXwrbDgcKFwrvDocKLwq/Dj8Odw6pkwqzCglF4w7bDlS/Dt8OMw4hEw5HCgCjCsA4tGlzDhsK1WhhPLsOtHE3ClMKGH3xdLMK4WCg/w7vCosKSw4E2wpbCsMOzQMKrwpdQw5s+w74iWSc8woQTBAgWdmRxK8OJR8KPwprCpcK6wpzCisKANE/CkivDvMOBwpduGsKKwpEpwpHDtCfDo0/CmcOAwpnCnVLClywEw4vCpsKCw5LCp8K6YcO7wrLCq0bCqwpcw6B0w7zCshDDg8OCw4EdQhXCmFVoVsKlHMKBwoPCv8KNwpExLMOMaWTDpsKWw5LCuRB/w7rDtV7DvXcNw6Q/w5nCkMO/w5PCjcO3CcOYw6/ClcOYw67CrMKxwqzDsHwjwqPDrcKgQBkiw7fCusKwSlcWw77DlHjCu8KgCU3CvcKGw5sTw5tANcK1woLDiyVoH2tZw6DCusOgIcKNwrfDr3sMw7JpPGnDjx3DsUdmJMOiBUIfw7ILIsKXwrwTLyBBPGQUw780DXwvBHRfBkwiAHvCgUHDsMKuw7zDvyTDrcKZw4HCpWhFTWfCr8KlJcK8ShM4w4HCiMOlKsKMwpFkw6sQHcO3wpTDtlwcC8K6NE/DoMKOwpdLZMKzKU7Cuh3Dm3jCgB1Zfm7DuMOdw5PCvMOzwrESw74eBHHDoMKpwozCkU8gNsOVMHhfwonDgcO3eSdyCsOXacObw4cRJ8KwIELDg8Olwp02wo9PZGjChD5Nw44hayBjVjBawprDli/Cu8O6w67CrMKLdsKcwr8aLAvDqsKiNXLCssKZbsORw5kcwrjChsK9w5HDnBzDq8Ozw79pTsOzJMKEYsOnMcO7w617ecO+f8KZc8KBwrhew7bClWcyw4kvU8Ovw7vDthZOFMO8BcKcw73Dsn/DqsKBe8Kz]]></gravitDesigner:gravitGraphicSource></svg>

<svg xmlns="http://www.w3.org/2000/svg" xmlns:xlink="http://www.w3.org/1999/xlink" style="isolation:isolate" width="256" height="256"><switch><g><path d="M78.924 15.5c-35.296 0-39.094 3.625-38.921 38.994v146.012c-.173 35.369 3.625 38.994 38.921 38.994h98.157c35.297 0 38.922-3.625 38.922-38.994V54.494c0-35.369-3.625-38.994-38.922-38.994H78.924z" fill="none" vector-effect="non-scaling-stroke" stroke-width="4" stroke="#000" opacity=".2"/><defs><filter id="a" x="-200%" y="-200%" width="400%" height="400%" filterUnits="objectBoundingBox" color-interpolation-filters="sRGB"><feGaussianBlur xmlns="http://www.w3.org/2000/svg" stdDeviation="2.12"/></filter></defs><path d="M78.924 16.5c-35.296 0-39.094 3.625-38.921 38.994v146.012c-.173 35.369 3.625 38.994 38.921 38.994h98.157c35.297 0 38.003-3.637 38.922-38.994V55.494c0-35.369-3.625-38.994-38.922-38.994H78.924z" opacity=".1" filter="url(#a)"/><defs><filter id="b" x="-200%" y="-200%" width="400%" height="400%" filterUnits="objectBoundingBox" color-interpolation-filters="sRGB"><feGaussianBlur xmlns="http://www.w3.org/2000/svg" stdDeviation="8.48"/></filter></defs><g opacity=".3" filter="url(#b)"><linearGradient id="c" x1="-.068" y1=".031" x2=".954" y2="1.053" gradientTransform="matrix(176.0054 0 0 224 39.997 16.5)" gradientUnits="userSpaceOnUse"><stop offset="0%" stop-opacity=".588"/><stop offset="88%" stop-opacity="0"/><stop offset="100%"/></linearGradient><path d="M78.924 16.5c-35.296 0-39.094 3.625-38.921 38.994v146.012c-.173 35.369 3.625 38.994 38.921 38.994h98.157c35.297 0 38.922-3.625 38.922-38.994V55.494c0-35.369-3.625-38.994-38.922-38.994H78.924z" fill="url(#c)"/></g><path d="M78.924 15.5c-35.296 0-39.094 3.625-38.921 38.994v146.012c-.173 35.369 3.625 38.994 38.921 38.994h98.157c35.297 0 38.922-3.625 38.922-38.994V54.494c0-35.369-3.625-38.994-38.922-38.994H78.924z" fill="#31C6B7"/><path d="M78.925 15.5c-35.297 0-39.095 3.626-38.922 38.994v2C39.83 21.126 43.628 17.5 78.925 17.5h98.156c35.297 0 38.922 3.626 38.922 38.994v-2c0-35.368-3.625-38.994-38.922-38.994H78.925z" fill="#FFF" opacity=".6"/><path d="M128.003 15.5v224h49.078c35.297 0 38.003-3.636 38.922-38.993V54.493c0-35.368-3.625-38.993-38.922-38.993h-49.078z" fill="#FFF" opacity=".1"/><path d="M156.003 239.5l60-60v22.484c-.053 33.996-3.803 37.516-38.174 37.516h-21.826z" fill="#FFF" opacity=".2"/><g fill="#FFF"><path d="M182 79.786c-11.571 11.571-19.286 23.143-38.178 28.593-2.337-14.264-14.754-24.736-29.322-24.736-16.404 0-29.7 13.191-29.7 29.465.015 1.23.104 2.46.274 3.683C78.366 120.587 74 127.418 74 138.715c0 18.904 18.426 37.5 39.424 37.5 41.53 0 68.576-42.854 68.576-96.43zm-67.5 17.14c8.949 0 16.2 7.194 16.2 16.074 0 8.875-7.251 16.072-16.2 16.072-8.949 0-16.2-7.193-16.2-16.072 0-8.876 7.251-16.073 16.2-16.073zm39.424 39.402c0 2.977-18.723 26.49-36.724 26.49-16.505 0-25.924-11.073-25.924-22.58 18.001 17.512 47.528 5.964 62.648-3.914v.004z"/><ellipse vector-effect="non-scaling-stroke" cx="120.826" cy="106.311" rx="8.254" ry="8.189"/></g></g><foreignObject requiredExtensions="http://ns.gravit.io/"> </foreignObject></switch> </svg>
